static/images/code3.svg

<svg height="475" viewBox="0 0 359 475" width="359" xmlns="http://www.w3.org/2000/svg"><g fill="none" fill-rule="evenodd"><path d="m0 0h359v475h-359z" fill="#fff"/><text fill="#02afde" font-family="Menlo-Bold, Menlo" font-size="14" font-weight="bold"><tspan x="45" y="37">Scheduled task</tspan></text><path d="m28.6928135 32.1139433h-3.6957834c-.5506445 0-.9970301-.4438648-.9970301-1 0-.5522847.4530363-1 .9970301-1h3.836424l-1.563032-1.3587229c-.4165096-.3620663-.4629558-.990568-.0980983-1.4102886.3623314-.4168146.9914112-.4631923 1.4102164-.0991305l3.6027646 3.1318355c.2359546.2051122.3531457.4957308.3440755.7854583.0211132.3238931-.1160779.6515301-.39638.8627528l-3.8124542 2.8728904c-.4407515.33213-1.0651757.2468884-1.3998662-.1972609-.3323733-.4410742-.2469445-1.0660496.1962361-1.4000101z" fill="#02afde" transform="matrix(-1 0 0 1 56.531496 0)"/><g transform="translate(24 66)"><text fill="#646782" font-family="Menlo-Regular, Menlo" font-size="12"><tspan x="0" y="11">Name</tspan></text><path d="m.5 22.5h310v23h-310z" stroke="#e0e0e0"/><rect height="33" rx="2" stroke="#44c56e" width="155" x=".5" y="56.5"/><g font-family="Menlo-Regular, Menlo" font-size="12"><text fill="#646782"><tspan x="10" y="39">Facebook Ads</tspan></text><text fill="#44c56e"><tspan x="9" y="78">Login with Facebook</tspan></text></g></g><g transform="translate(14 200)"><path d="m0 0h331v75h-331z" fill="#fafafa"/><text fill="#646782" font-family="Menlo-Bold, Menlo" font-size="10" font-weight="bold"><tspan x="10" y="17">collection</tspan></text><path d="m10.5 28.5h310v23h-310z" stroke="#e0e0e0"/><g font-family="Menlo-Regular, Menlo"><text fill="#646782" font-size="12"><tspan x="20" y="45">facebook_ads</tspan></text><text fill="#9092a7" font-size="8"><tspan x="20" y="62">The collection name for result data</tspan></text></g></g><g transform="translate(14 285)"><path d="m0 0h331v75h-331z" fill="#fafafa"/><text fill="#646782" font-family="Menlo-Bold, Menlo" font-size="10" font-weight="bold"><tspan x="10" y="17">start_date</tspan></text><path d="m10.5 28.5h310v23h-310z" stroke="#e0e0e0"/><g font-family="Menlo-Regular, Menlo"><text fill="#646782" font-size="12"><tspan x="20" y="45">2016-12-01</tspan></text><text fill="#9092a7" font-size="8"><tspan x="20" y="62">The start date for facebook ads data</tspan></text></g></g><text fill="#646782" font-family="Menlo-Regular, Menlo" font-size="12"><tspan x="24" y="380">customize integration</tspan></text><g transform="translate(24 405)"><text fill="#646782" font-family="Menlo-Regular, Menlo" font-size="12"><tspan x="0" y="11">Interval</tspan></text><path d="m.5 22.5h310v23h-310z" stroke="#e0e0e0"/><path d="m246.5 22.5v23" stroke="#e0e0e0" stroke-linecap="square"/><text fill="#646782" font-family="Menlo-Regular, Menlo" font-size="12"><tspan x="10" y="39">24</tspan></text><text fill="#646782" font-family="Menlo-Regular, Menlo" font-size="12"><tspan x="256" y="39">hours</tspan></text><path d="m297 33h6l-3 3z" fill="#d8d8d8"/></g><text fill="#646782" font-family="Menlo-Bold, Menlo" font-size="12" font-weight="bold"><tspan x="24" y="191">Parameters</tspan></text></g></svg>

<?xml version="1.0" encoding="UTF-8"?>
<svg width="359px" height="475px" viewBox="0 0 359 475" version="1.1" xmlns="http://www.w3.org/2000/svg" xmlns:xlink="http://www.w3.org/1999/xlink">
    <!-- Generator: sketchtool 46.2 (44496) - http://www.bohemiancoding.com/sketch -->
    <title>F98F15C5-78C7-44DA-B998-7420365FFBED</title>
    <desc>Created with sketchtool.</desc>
    <defs></defs>
    <g id="Page-1" stroke="none" stroke-width="1" fill="none" fill-rule="evenodd">
        <g id="Artboard-5" transform="translate(-994.000000, -485.000000)">
            <g id="Products1" transform="translate(214.000000, 287.000000)">
                <g id="3" transform="translate(780.000000, 198.000000)">
                    <polygon id="bg-card" fill="#FFFFFF" points="0 0 359 0 359 475 0 475"></polygon>
                    <text id="Scheduled-task" font-family="Menlo-Bold, Menlo" font-size="14" font-weight="bold" line-spacing="12" fill="#02AFDE">
                        <tspan x="45" y="37">Scheduled task</tspan>
                    </text>
                    <path d="M28.6928135,32.1139433 L24.9970301,32.1139433 C24.4463856,32.1139433 24,31.6700785 24,31.1139433 C24,30.5616586 24.4530363,30.1139433 24.9970301,30.1139433 L28.8334541,30.1139433 L27.2704221,28.7552204 C26.8539125,28.3931541 26.8074663,27.7646524 27.1723238,27.3449318 C27.5346552,26.9281172 28.163735,26.8817395 28.5825402,27.2458013 L32.1853048,30.3776368 C32.4212594,30.582749 32.5384505,30.8733676 32.5293803,31.1630951 C32.5504935,31.4869882 32.4133024,31.8146252 32.1330003,32.0258479 L28.3205461,34.8987383 C27.8797946,35.2308683 27.2553704,35.1456267 26.9206799,34.7014774 C26.5883066,34.2604032 26.6737354,33.6354278 27.116916,33.3014673 L28.6928135,32.1139433 Z" id="Combined-Shape" fill="#02AFDE" transform="translate(28.265748, 31.050404) scale(-1, 1) translate(-28.265748, -31.050404) "></path>
                    <g id="rakam" transform="translate(24.000000, 66.000000)">
                        <text id="Name" font-family="Menlo-Regular, Menlo" font-size="12" font-weight="normal" line-spacing="12" fill="#646782">
                            <tspan x="0" y="11">Name</tspan>
                        </text>
                        <rect id="Rectangle-4" stroke="#E0E0E0" x="0.5" y="22.5" width="310" height="23"></rect>
                        <rect id="Rectangle-4" stroke="#44C56E" x="0.5" y="56.5" width="155" height="33" rx="2"></rect>
                        <text id="Facebook-Ads" font-family="Menlo-Regular, Menlo" font-size="12" font-weight="normal" line-spacing="12" fill="#646782">
                            <tspan x="10" y="39">Facebook Ads</tspan>
                        </text>
                        <text id="Login-with-Facebook" font-family="Menlo-Regular, Menlo" font-size="12" font-weight="normal" line-spacing="12" fill="#44C56E">
                            <tspan x="9" y="78">Login with Facebook</tspan>
                        </text>
                    </g>
                    <g id="port" transform="translate(14.000000, 200.000000)">
                        <rect id="Rectangle-7" fill="#FAFAFA" x="0" y="0" width="331" height="75"></rect>
                        <text id="collection" font-family="Menlo-Bold, Menlo" font-size="10" font-weight="bold" line-spacing="12" fill="#646782">
                            <tspan x="10" y="17">collection</tspan>
                        </text>
                        <rect id="Rectangle-4" stroke="#E0E0E0" x="10.5" y="28.5" width="310" height="23"></rect>
                        <text id="facebook_ads" font-family="Menlo-Regular, Menlo" font-size="12" font-weight="normal" line-spacing="12" fill="#646782">
                            <tspan x="20" y="45">facebook_ads</tspan>
                        </text>
                        <text id="The-collection-name" font-family="Menlo-Regular, Menlo" font-size="8" font-weight="normal" line-spacing="12" fill="#9092A7">
                            <tspan x="20" y="62">The collection name for result data</tspan>
                        </text>
                    </g>
                    <g id="port" transform="translate(14.000000, 285.000000)">
                        <rect id="Rectangle-7" fill="#FAFAFA" x="0" y="0" width="331" height="75"></rect>
                        <text id="start_date" font-family="Menlo-Bold, Menlo" font-size="10" font-weight="bold" line-spacing="12" fill="#646782">
                            <tspan x="10" y="17">start_date</tspan>
                        </text>
                        <rect id="Rectangle-4" stroke="#E0E0E0" x="10.5" y="28.5" width="310" height="23"></rect>
                        <text id="2016-12-01" font-family="Menlo-Regular, Menlo" font-size="12" font-weight="normal" line-spacing="12" fill="#646782">
                            <tspan x="20" y="45">2016-12-01</tspan>
                        </text>
                        <text id="The-start-date-for-f" font-family="Menlo-Regular, Menlo" font-size="8" font-weight="normal" line-spacing="12" fill="#9092A7">
                            <tspan x="20" y="62">The start date for facebook ads data</tspan>
                        </text>
                    </g>
                    <text id="customize-integratio" font-family="Menlo-Regular, Menlo" font-size="12" font-weight="normal" line-spacing="12" fill="#646782">
                        <tspan x="24" y="380">customize integration</tspan>
                    </text>
                    <g id="rakam" transform="translate(24.000000, 405.000000)">
                        <text id="Interval" font-family="Menlo-Regular, Menlo" font-size="12" font-weight="normal" line-spacing="12" fill="#646782">
                            <tspan x="0" y="11">Interval</tspan>
                        </text>
                        <rect id="Rectangle-4" stroke="#E0E0E0" x="0.5" y="22.5" width="310" height="23"></rect>
                        <path d="M246.5,22.5 L246.5,45.5" id="Line" stroke="#E0E0E0" stroke-linecap="square"></path>
                        <text id="24" font-family="Menlo-Regular, Menlo" font-size="12" font-weight="normal" line-spacing="12" fill="#646782">
                            <tspan x="10" y="39">24</tspan>
                        </text>
                        <text id="hours" font-family="Menlo-Regular, Menlo" font-size="12" font-weight="normal" line-spacing="12" fill="#646782">
                            <tspan x="256" y="39">hours</tspan>
                        </text>
                        <polygon id="Path-3" fill="#D8D8D8" points="297 33 303 33 300 36"></polygon>
                    </g>
                    <text id="Parameters" font-family="Menlo-Bold, Menlo" font-size="12" font-weight="bold" line-spacing="12" fill="#646782">
                        <tspan x="24" y="191">Parameters</tspan>
                    </text>
                </g>
            </g>
        </g>
    </g>
</svg>
